X: 28
T:Buck Fever Rag
R:Rag
Z:Added by Alf Warnock
M:4/4
L:1/8
K:C
|g2g3agf|efed cA^AB|c2c3dc_B|A_BAG FGAc|
BBgB BaBB|gBBa BBgB|[1 ccgc cacc|g2{a}e2 f2^f2:|[2 gagf efed|c2c2 B2^A2|
|:A^cea ^f2{a}ec|A^cea ^f2{a}ec|D^FAd B2{d}AF|D^FAd B2{d}AF|
G,B,DG E2{G}DB,|G,B,DG E2{G}DB,|C2DE FGAB|[1 c2c2 B2^A2:|[2 c2e2 f2^f2|]

